X: 1
T: Red Spruce
M: 6/8
L: 1/8
R: jig
K: Gmaj
|: D>B,D EGE | DB,A, G,2 B, | DB,D DEG | (A3A2) G/A/ |
B2 B A2A | GGE D2 B, |  D>B,D EGE |1 D4  B,C :|2 D3 G2 A ||
|: BAB Bcd | e2 f gfe | d2 e dBG | (A3A2)  G/A/ |
BAB Bcd | e2 f gfe | dBG ABA |1 G4  GA :|2 G3 G3||
